alpha-i-box.svg

<svg fill="currentColor" viewBox="0 0 24 24"><path d="M14 7h-4v2h1v6h-1v2h4v-2h-1V9h1zM5 3h14a2 2 0 0 1 2 2v14a2 2 0 0 1-2 2H5a2 2 0 0 1-2-2V5a2 2 0 0 1 2-2"/></svg>

<svg  viewBox="0 0 24 24" fill="currentColor"><path  d="M14,7H10V9H11V15H10V17H14V15H13V9H14V7M5,3H19A2,2 0 0,1 21,5V19A2,2 0 0,1 19,21H5A2,2 0 0,1 3,19V5A2,2 0 0,1 5,3Z"/></svg>
